svg/system/classify_line.svg

<?xml version="1.0" encoding="UTF-8"?>
<svg width="24px" height="24px" viewBox="0 0 24 24" version="1.1" xmlns="http://www.w3.org/2000/svg" xmlns:xlink="http://www.w3.org/1999/xlink">
    <title>classify_line</title>
    <g id="页面-1" stroke="none" stroke-width="1" fill="none" fill-rule="evenodd">
        <g id="System" transform="translate(-912.000000, -288.000000)">
            <g id="classify_line" transform="translate(912.000000, 288.000000)">
                 <path d="M24,0 L24,24 L0,24 L0,0 L24,0 Z M12.5934901,23.257841 L12.5819402,23.2595131 L12.5108777,23.2950439 L12.4918791,23.2987469 L12.4918791,23.2987469 L12.4767152,23.2950439 L12.4056548,23.2595131 C12.3958229,23.2563662 12.3870493,23.2590235 12.3821421,23.2649074 L12.3780323,23.275831 L12.360941,23.7031097 L12.3658947,23.7234994 L12.3769048,23.7357139 L12.4804777,23.8096931 L12.4953491,23.8136134 L12.4953491,23.8136134 L12.5071152,23.8096931 L12.6106902,23.7357139 L12.6232938,23.7196733 L12.6232938,23.7196733 L12.6266527,23.7031097 L12.609561,23.275831 C12.6075724,23.2657013 12.6010112,23.2592993 12.5934901,23.257841 L12.5934901,23.257841 Z M12.8583906,23.1452862 L12.8445485,23.1473072 L12.6598443,23.2396597 L12.6498822,23.2499052 L12.6498822,23.2499052 L12.6471943,23.2611114 L12.6650943,23.6906389 L12.6699349,23.7034178 L12.6699349,23.7034178 L12.678386,23.7104931 L12.8793402,23.8032389 C12.8914285,23.8068999 12.9022333,23.8029875 12.9078286,23.7952264 L12.9118235,23.7811639 L12.8776777,23.1665331 C12.8752882,23.1545897 12.8674102,23.1470016 12.8583906,23.1452862 L12.8583906,23.1452862 Z M12.1430473,23.1473072 C12.1332178,23.1423925 12.1221763,23.1452606 12.1156365,23.1525954 L12.1099173,23.1665331 L12.0757714,23.7811639 C12.0751323,23.7926639 12.0828099,23.8018602 12.0926481,23.8045676 L12.108256,23.8032389 L12.3092106,23.7104931 L12.3186497,23.7024347 L12.3186497,23.7024347 L12.3225043,23.6906389 L12.340401,23.2611114 L12.337245,23.2485176 L12.337245,23.2485176 L12.3277531,23.2396597 L12.1430473,23.1473072 Z" id="MingCute" fill-rule="nonzero"></path>
                <path d="M7,3 C4.79086,3 3,4.79086 3,7 C3,9.20914 4.79086,11 7,11 C9.20914,11 11,9.20914 11,7 C11,4.79086 9.20914,3 7,3 Z M5,7 C5,5.89543 5.89543,5 7,5 C8.10457,5 9,5.89543 9,7 C9,8.10457 8.10457,9 7,9 C5.89543,9 5,8.10457 5,7 Z M7,13 C4.79086,13 3,14.7909 3,17 C3,19.2091 4.79086,21 7,21 C9.20914,21 11,19.2091 11,17 C11,14.7909 9.20914,13 7,13 Z M5,17 C5,15.8954 5.89543,15 7,15 C8.10457,15 9,15.8954 9,17 C9,18.1046 8.10457,19 7,19 C5.89543,19 5,18.1046 5,17 Z M13,7 C13,4.79086 14.7909,3 17,3 C19.2091,3 21,4.79086 21,7 C21,9.20914 19.2091,11 17,11 C14.7909,11 13,9.20914 13,7 Z M17,5 C15.8954,5 15,5.89543 15,7 C15,8.10457 15.8954,9 17,9 C18.1046,9 19,8.10457 19,7 C19,5.89543 18.1046,5 17,5 Z M17,13 C14.7909,13 13,14.7909 13,17 C13,19.2091 14.7909,21 17,21 C19.2091,21 21,19.2091 21,17 C21,14.7909 19.2091,13 17,13 Z M15,17 C15,15.8954 15.8954,15 17,15 C18.1046,15 19,15.8954 19,17 C19,18.1046 18.1046,19 17,19 C15.8954,19 15,18.1046 15,17 Z" id="形状" fill="#09244B"></path>
            </g>
        </g>
    </g>
</svg>

<svg xmlns="http://www.w3.org/2000/svg" width="24" height="24"><g fill="none" fill-rule="evenodd"><path d="M24 0v24H0V0h24ZM12.593 23.258l-.011.002-.071.035-.02.004-.014-.004-.071-.035c-.01-.004-.019-.001-.024.005l-.004.01-.017.428.005.02.01.013.104.074.015.004.012-.004.104-.074.012-.016.004-.017-.017-.427c-.002-.01-.009-.017-.017-.018Zm.265-.113-.013.002-.185.093-.01.01-.003.011.018.43.005.012.008.007.201.093c.012.004.023 0 .029-.008l.004-.014-.034-.614c-.003-.012-.01-.02-.02-.022Zm-.715.002a.023.023 0 0 0-.027.006l-.006.014-.034.614c0 .012.007.02.017.024l.015-.002.201-.093.01-.008.004-.011.017-.43-.003-.012-.01-.01-.184-.092Z"/><path fill="#09244B" d="M7 3a4 4 0 1 0 0 8 4 4 0 0 0 0-8ZM5 7a2 2 0 1 1 4 0 2 2 0 0 1-4 0Zm2 6a4 4 0 1 0 0 8 4 4 0 0 0 0-8Zm-2 4a2 2 0 1 1 4 0 2 2 0 0 1-4 0Zm8-10a4 4 0 1 1 8 0 4 4 0 0 1-8 0Zm4-2a2 2 0 1 0 0 4 2 2 0 0 0 0-4Zm0 8a4 4 0 1 0 0 8 4 4 0 0 0 0-8Zm-2 4a2 2 0 1 1 4 0 2 2 0 0 1-4 0Z"/></g></svg>
